Newaita/actions/32/preferences-system.svg

<?xml version="1.0" encoding="UTF-8"?>
<svg xmlns="http://www.w3.org/2000/svg" xmlns:xlink="http://www.w3.org/1999/xlink" width="32pt" height="32pt" viewBox="0 0 32 32" version="1.1">
<g id="surface1">
<path style=" stroke:none;fill-rule:nonzero;fill:rgb(25.882354%,25.882354%,25.882354%);fill-opacity:1;" d="M 15.875 30.679688 C 16.425781 30.679688 16.867188 30.238281 16.867188 29.6875 L 16.867188 26.585938 C 16.550781 26.667969 16.21875 26.710938 15.875 26.710938 C 15.535156 26.710938 15.203125 26.667969 14.882812 26.585938 L 14.882812 29.6875 C 14.882812 30.238281 15.328125 30.679688 15.875 30.679688 Z M 16.867188 18.898438 L 16.867188 2.566406 C 16.867188 2.015625 16.425781 1.574219 15.875 1.574219 C 15.328125 1.574219 14.882812 2.015625 14.882812 2.566406 L 14.882812 18.898438 C 15.203125 18.816406 15.535156 18.773438 15.875 18.773438 C 16.21875 18.773438 16.550781 18.816406 16.867188 18.898438 Z M 16.867188 18.898438 "/>
<path style=" stroke:none;fill-rule:nonzero;fill:rgb(25.882354%,25.882354%,25.882354%);fill-opacity:1;" d="M 25.46875 30.679688 C 26.019531 30.679688 26.460938 30.238281 26.460938 29.6875 L 26.460938 19.972656 C 26.144531 20.050781 25.8125 20.09375 25.46875 20.09375 C 25.125 20.09375 24.792969 20.050781 24.476562 19.972656 L 24.476562 29.6875 C 24.476562 30.238281 24.917969 30.679688 25.46875 30.679688 Z M 26.460938 12.28125 L 26.460938 2.566406 C 26.460938 2.015625 26.019531 1.574219 25.46875 1.574219 C 24.917969 1.574219 24.476562 2.015625 24.476562 2.566406 L 24.476562 12.28125 C 24.792969 12.199219 25.125 12.15625 25.46875 12.15625 C 25.8125 12.15625 26.144531 12.199219 26.460938 12.28125 Z M 26.460938 12.28125 "/>
<path style=" stroke:none;fill-rule:nonzero;fill:rgb(25.882354%,25.882354%,25.882354%);fill-opacity:1;" d="M 6.285156 30.679688 C 6.835938 30.679688 7.277344 30.238281 7.277344 29.6875 L 7.277344 13.355469 C 6.960938 13.4375 6.628906 13.480469 6.285156 13.480469 C 5.941406 13.480469 5.609375 13.4375 5.292969 13.355469 L 5.292969 29.6875 C 5.292969 30.238281 5.734375 30.679688 6.285156 30.679688 Z M 7.277344 5.667969 L 7.277344 2.566406 C 7.277344 2.015625 6.835938 1.574219 6.285156 1.574219 C 5.734375 1.574219 5.292969 2.015625 5.292969 2.566406 L 5.292969 5.667969 C 5.609375 5.585938 5.941406 5.542969 6.285156 5.542969 C 6.628906 5.542969 6.960938 5.585938 7.277344 5.667969 Z M 7.277344 5.667969 "/>
<path style=" stroke:none;fill-rule:nonzero;fill:rgb(36.078432%,41.960785%,75.294119%);fill-opacity:1;" d="M 15.875 26.710938 C 18.074219 26.710938 19.84375 24.941406 19.84375 22.742188 C 19.84375 20.542969 18.074219 18.773438 15.875 18.773438 C 13.675781 18.773438 11.90625 20.542969 11.90625 22.742188 C 11.90625 24.941406 13.675781 26.710938 15.875 26.710938 Z M 15.875 24.726562 C 14.777344 24.726562 13.890625 23.839844 13.890625 22.742188 C 13.890625 21.640625 14.777344 20.757812 15.875 20.757812 C 16.976562 20.757812 17.859375 21.640625 17.859375 22.742188 C 17.859375 23.839844 16.976562 24.726562 15.875 24.726562 Z M 15.875 24.726562 "/>
<path style=" stroke:none;fill-rule:nonzero;fill:rgb(36.078432%,41.960785%,75.294119%);fill-opacity:1;" d="M 25.46875 20.09375 C 27.667969 20.09375 29.4375 18.324219 29.4375 16.125 C 29.4375 13.925781 27.667969 12.15625 25.46875 12.15625 C 23.269531 12.15625 21.5 13.925781 21.5 16.125 C 21.5 18.324219 23.269531 20.09375 25.46875 20.09375 Z M 25.46875 18.109375 C 24.367188 18.109375 23.484375 17.226562 23.484375 16.125 C 23.484375 15.027344 24.367188 14.140625 25.46875 14.140625 C 26.566406 14.140625 27.453125 15.027344 27.453125 16.125 C 27.453125 17.226562 26.566406 18.109375 25.46875 18.109375 Z M 25.46875 18.109375 "/>
<path style=" stroke:none;fill-rule:nonzero;fill:rgb(36.078432%,41.960785%,75.294119%);fill-opacity:1;" d="M 6.285156 13.480469 C 8.484375 13.480469 10.253906 11.710938 10.253906 9.511719 C 10.253906 7.3125 8.484375 5.542969 6.285156 5.542969 C 4.085938 5.542969 2.316406 7.3125 2.316406 9.511719 C 2.316406 11.710938 4.085938 13.480469 6.285156 13.480469 Z M 6.285156 11.496094 C 5.183594 11.496094 4.300781 10.609375 4.300781 9.511719 C 4.300781 8.410156 5.183594 7.527344 6.285156 7.527344 C 7.382812 7.527344 8.269531 8.410156 8.269531 9.511719 C 8.269531 10.609375 7.382812 11.496094 6.285156 11.496094 Z M 6.285156 11.496094 "/>
</g>
</svg>

<svg xmlns="http://www.w3.org/2000/svg" width="32pt" height="32pt" viewBox="0 0 32 32"><path d="M15.875 30.68c.55 0 .992-.442.992-.992v-3.102a3.992 3.992 0 0 1-1.984 0v3.102c0 .55.445.992.992.992zm.992-11.782V2.566a.989.989 0 0 0-.992-.992.991.991 0 0 0-.992.992v16.332a3.992 3.992 0 0 1 1.984 0zm0 0M25.469 30.68c.55 0 .992-.442.992-.992v-9.715a4.133 4.133 0 0 1-1.984 0v9.715c0 .55.441.992.992.992zm.992-18.399V2.566a.989.989 0 0 0-.992-.992.989.989 0 0 0-.992.992v9.715c.316-.082.648-.125.992-.125.343 0 .676.043.992.125zm0 0M6.285 30.68c.55 0 .992-.442.992-.992V13.355a3.946 3.946 0 0 1-.992.125c-.344 0-.676-.043-.992-.125v16.332c0 .551.441.993.992.993zm.992-25.012V2.566a.989.989 0 0 0-.992-.992.989.989 0 0 0-.992.992v3.102c.316-.082.648-.125.992-.125s.676.043.992.125zm0 0" fill="#424242"/><path d="M15.875 26.71a3.96 3.96 0 0 0 3.969-3.968 3.96 3.96 0 0 0-3.969-3.969 3.96 3.96 0 0 0-3.969 3.97 3.96 3.96 0 0 0 3.969 3.968zm0-1.983a1.982 1.982 0 0 1-1.984-1.985 1.98 1.98 0 0 1 1.984-1.984c1.102 0 1.984.883 1.984 1.984a1.98 1.98 0 0 1-1.984 1.985zm0 0M25.469 20.094a3.96 3.96 0 0 0 3.968-3.969 3.96 3.96 0 0 0-3.968-3.969 3.96 3.96 0 0 0-3.969 3.969 3.96 3.96 0 0 0 3.969 3.969zm0-1.985a1.977 1.977 0 0 1-1.985-1.984 1.98 1.98 0 0 1 1.985-1.984c1.097 0 1.984.886 1.984 1.984a1.98 1.98 0 0 1-1.984 1.984zm0 0M6.285 13.48a3.96 3.96 0 0 0 3.969-3.968 3.96 3.96 0 0 0-3.969-3.969 3.96 3.96 0 0 0-3.969 3.969 3.96 3.96 0 0 0 3.97 3.968zm0-1.984a1.98 1.98 0 0 1-1.984-1.984c0-1.102.883-1.985 1.984-1.985A1.98 1.98 0 0 1 8.27 9.512a1.982 1.982 0 0 1-1.985 1.984zm0 0" fill="#5c6bc0"/></svg>
